packages/ui-icons/svg/Solid/expand.svg

<svg viewBox="0 0 1920 1920" version="1.1" xmlns="http://www.w3.org/2000/svg">
    <path d="M1920,1694.17647 L1920,1807.11765 L0,1807.11765 L0,1694.17647 L1920,1694.17647 Z M960.056471,371.917647 L1338.74824,750.722353 L1258.89882,830.571765 L1016.52706,588.2 L1016.52706,1242.35529 L903.585882,1242.35529 L903.585882,588.2 L661.101176,830.571765 L581.251765,750.722353 L960.056471,371.917647 Z M1750.64471,112.943529 L169.468235,112.943529 C75.9529412,112.943529 0.0564705882,188.952941 0.0564705882,282.355294 L0.0564705882,1468.23765 L56.5270588,1468.23765 L112.997647,1468.23765 L1807.11529,1468.23765 L1863.58588,1468.23765 L1920.05647,1468.23765 L1920.05647,282.355294 C1920.05647,188.952941 1844.04706,112.943529 1750.64471,112.943529 L1750.64471,112.943529 Z" stroke="none" stroke-width="1" fill-rule="evenodd"/>
</svg>

<svg viewBox="0 0 1920 1920" version="1.1" xmlns="http://www.w3.org/2000/svg">
    <path d="M0 1807.118v-112.942h1920v112.942H0zm1258.899-976.546L1016.527 588.2v654.155H903.586V588.2L661.1 830.572l-79.85-79.85 378.805-378.804 378.692 378.804-79.85 79.85zm491.746-717.628H169.468C75.953 112.944.056 188.953.056 282.355v1185.883h1920V282.355c0-93.402-76.009-169.411-169.411-169.411z" stroke="none" stroke-width="1" fill-rule="evenodd"/>
</svg>
